X: 68
T:Untitled. HA.067
M:C
Q:180
S:Henry Atkinson's original MS,Hartburn,N'umberland,1694.
O:England
A:Hartburn,Northumberland
N:Various notes have been sharpened or naturalised in the MS. Sometimes I
N:have obeyed this and at other times I have merely indicated it above
N:the staff, according to my judgement.CGP
H:1/8
Z:vmp.Chris Partington.Jan.2004
K:Bb
d2|c3B A2G2|^F3G A2F2|D2G2G2A2|B4f4||!
(cd)(cB) (AB)(AG)|^F3G A2e>f|g2d2 f2A2|G6||!
d2|B2f2 B2f2|(gf)(ed) (cd)(cA)|B2f2 B2f2|(gf)"#"(ed) (ef)(gf)|!
(gf)"#"(ed) e"#"dcB|(cB)(AG) F2"#"e>f|g2d2 f2A2|G4 d4|]
